!!!OTL: Pueri concinite
**kern
*staff1
=--
*clefC1
*k[]
*met(c)
*M4/4
1r
2r
2a
1.g
2g
=-
2e
1a
2g
0a
=-
2r
2g
1.g
2g
1a
=-
2a
2a
1b
1a
1dd
=-
2cc
1a
4g
4f
1g
0a
!!linebreak:original
=-
1b
1a
1dd
1cc
=-
1b
1a
1dd
1cc
=-
1b
1a
1g
0e
=-
0a
1g
0a
=-=
*-
!!title: @{OTL}, @{GTL}, ed. @{ENC}
!!!pag:
!!!GTL: Hymnbook C
!!!EFL: 
!!!YEM: Creative Commons CC/BY/NC/SA 4.0
!!!ENC: Marcin Konik
!!!END: 2015-0m-dd
!!!EED: Marcin Konik
!!!EEV: 
!!!ONB: Encoded in vim by Marcin Konik
!!!CharacterEncoding: utf-8
!!!RDF**kern: l=long note in original notation
!!!RDF**kern: i=editorial accidental
!!muse2ps: z14jc180F
!!!COM: Anonim
!!!CDT: [?]
!!!TXO: Polish
!!!ODT: 
!!!GTL: Hymnbook C
!!!ARL: Opactwo św. Wojciecha, Staniątki 
!!!voices:	1
